**kern	**kern	**text	**kern	**text	**kern	**text	**kern	**text
*staff5	*staff4	*staff4	*staff3	*staff3	*staff2	*staff2	*staff1	*staff1
*I"Basso	*I"Tenore	*	*I"Alto	*	*I"Canto II	*	*I"Canto I	*
=1-	=1-	=1-	=1-	=1-	=1-	=1-	=1-	=1-
*clefF4	*clefGv2	*	*clefG2	*	*clefG2	*	*clefG2	*
*k[]	*k[]	*	*k[]	*	*k[]	*	*k[]	*
*met(c|)	*met(c|)	*	*met(c|)	*	*met(c|)	*	*met(c|)	*
*M2/2	*M2/2	*	*M2/2	*	*M2/2	*	*M2/2	*
4A\	4A/	Lar-	4e/	Lar-	4a/	Lar-	4cc\	Lar-
4E\	4E/	-gum	4e/	-gum	4g#/	-gum	4b\	-gum
2F\	2F/	ves-	2c/	ves-	2f/	ves-	2a/	ves-
=2	=2	=2	=2	=2	=2	=2	=2	=2
1C	1C	-per	1c	-per	1e	-per	1g	-per
=3	=3	=3	=3	=3	=3	=3	=3	=3
4C/	4C/	lar-	4e/	lar-	4cc\	lar-	4g/	lar-
4G\	4G/	-gum	4d/	-gum	4b\	-gum	4g/	-gum
2A\	2A/	ves-	2c/	ves-	2a/	ves-	2e/	ves-
=4	=4	=4	=4	=4	=4	=4	=4	=4
1E	1E	-per	1B	-per	1g#	-per	1e	-per
=5	=5	=5	=5	=5	=5	=5	=5	=5
4C/	4e\	lar-	4c/	lar-	4g/	lar-	4cc\	lar-
4G\	4d\	-gum	4d/	-gum	4g/	-gum	4b\	-gum
2A\	2c\	ves-	2A/	ves-	2e/	ves-	2a/	ves-
=6	=6	=6	=6	=6	=6	=6	=6	=6
1E	1B	-per	1B	-per	1e	-per	1g	-per
=7	=7	=7	=7	=7	=7	=7	=7	=7
2.C/	2.e\	Rex	2.g/	Rex	2.g/	Rex	2.cc\	Rex
4G\	4d\	.	4f/	.	4dd\	.	4b\	.
=8	=8	=8	=8	=8	=8	=8	=8	=8
4A\	4c\	.	4e/	.	4a/	.	4a/	.
4D\	4d\	glo-	4f/	glo-	4a/	glo-	2a/	glo-
2E\	2B\	-ri-	2e/	-ri-	2b\	-ri-	.	.
.	.	.	.	.	.	.	4g#/	-ri-
=9	=9	=9	=9	=9	=9	=9	=9	=9
1AA	1A	-ae	1e	-ae	1cc#	-ae	1a	-ae
=10:|!|:	=10:|!|:	=10:|!|:	=10:|!|:	=10:|!|:	=10:|!|:	=10:|!|:	=10:|!|:	=10:|!|:
4D\	4A/	da	4f#/	da	4a/	da	4dd\	da
8D\	8A/	no-	8f#/	no-	8a/	no-	8dd\	no-
8D\	8A/	-bis	8f#/	-bis	8a/	-bis	8dd\	-bis
4GG/	4B\	ho-	4d/	ho-	4g/	ho-	4b\	ho-
8GG/	8B\	-di-	8d/	-di-	8g/	-di-	8b\	-di-
8GG/	8B\	-ae	8d/	-ae	8g/	-ae	8b\	-ae
=11	=11	=11	=11	=11	=11	=11	=11	=11
4C/	4c\	da	4e/	da	4e/	da	4g/	da
8C/	8c\	no-	8e/	no-	8e/	no-	8g/	no-
8C/	8c\	-bis	8e/	-bis	8e/	-bis	8g/	-bis
4G\	4d\	ho-	4d/	ho-	4g/	ho-	4b\	ho-
8G\	8d\	-di-	8d/	-di-	8g/	-di-	8b\	-di-
8G\	8d\	-ae	8d/	-ae	8g/	-ae	8b\	-ae
=12	=12	=12	=12	=12	=12	=12	=12	=12
4C/	4e\	da	4g/	da	4g/	da	4cc\	da
8C/	8e\	no-	8g/	no-	8g/	no-	8cc\	no-
8C/	8e\	-bis	8g/	-bis	8g/	-bis	8cc\	-bis
4D\	4d\	ho-	4d/	ho-	4f/	ho-	4a/	ho-
8D\	8d\	-di-	8d/	-di-	8f/	-di-	8a/	-di-
8D\	8d\	-ae	8d/	-ae	8f/	-ae	8a/	-ae
=13	=13	=13	=13	=13	=13	=13	=13	=13
4A\	4c\	lar-	4e/	lar-	4a/	lar-	4a/	lar-
4D\	4d\	-gum	4f/	-gum	4a/	-gum	2a/	-gum
2E\	2B\	ves-	2e/	ves-	2b\	ves-	.	.
.	.	.	.	.	.	.	4g#/	ves-
=14	=14	=14	=14	=14	=14	=14	=14	=14
1AA	1A	-per	1e	-per	1cc#	-per	1a	-per
=15	=15	=15	=15	=15	=15	=15	=15	=15
4A\	4c\	lar-	4e/	lar-	4a/	lar-	4a/	lar-
4D\	4d\	-gum	4f/	-gum	4a/	-gum	2a/	-gum
2E\	2B\	ves-	2e/	ves-	2b\	ves-	.	.
.	.	.	.	.	.	.	4g#/	ves-
=16	=16	=16	=16	=16	=16	=16	=16	=16
1AA	1A	-per.	1e	-per.	1cc#	-per.	1a	-per.
==	==	==	==	==	==	==	==	==
*-	*-	*-	*-	*-	*-	*-	*-	*-
